svgs/openapk.svg

<svg width="192" height="192" viewBox="0 0 192 192" fill="none" xmlns="http://www.w3.org/2000/svg"><path fill="#fff" d="M0 0h192v192H0z"/><path stroke="#000" stroke-width="12" stroke-linejoin="round" d="M30 30h132v132H30z"/><path d="M63 30v66l8.5-8 8 8 8.5-8 8 8 8-8 9 8 8-8 8 8V30H63Z" stroke="#000" stroke-width="12" stroke-linecap="round" stroke-linejoin="round"/></svg>

<svg width="192" height="192" viewBox="0 0 192 192" fill="none" xmlns="http://www.w3.org/2000/svg">
<rect width="192" height="192" fill="white"/>
<rect x="30" y="30" width="132" height="132" stroke="black" stroke-width="12" stroke-linejoin="round"/>
<path d="M63 30V96L71.5 88L79.5 96L88 88L96 96L104 88L113 96L121 88L129 96V30H63Z" stroke="black" stroke-width="12" stroke-linecap="round" stroke-linejoin="round"/>
</svg>
